HTML/assets/link.svg

<?xml version="1.0" encoding="UTF-8"?>
<svg width="24px" height="24px" viewBox="0 0 24 24" version="1.1" xmlns="http://www.w3.org/2000/svg" xmlns:xlink="http://www.w3.org/1999/xlink">
    <!-- Generator: sketchtool 49 (51002) - http://www.bohemiancoding.com/sketch -->
    <title>1CB48345-BA67-4533-BB33-9201866B6834</title>
    <desc>Created with sketchtool.</desc>
    <defs>
        <path d="M9.19923496,13.5989786 C8.86842822,13.1567283 8.95877109,12.5300417 9.40102142,12.199235 C9.84327174,11.8684282 10.4699583,11.9587711 10.800765,12.4010214 C11.4959294,13.3303758 12.5604669,13.9119818 13.7180849,13.9948881 C14.875703,14.0777944 16.0122577,13.6538263 16.8328932,12.8328932 L19.8207118,9.84528821 C21.3366006,8.27577266 21.3149213,5.7809491 19.7719861,4.2380139 C18.2290509,2.69507871 15.7342273,2.67339937 14.1750422,4.1791653 L12.4550422,5.8891653 C12.0633811,6.27854939 11.4302188,6.27670343 11.0408347,5.88504225 C10.6514506,5.49338107 10.6532966,4.86021878 11.0449578,4.4708347 L12.7752882,2.75071179 C15.1295615,0.476878537 18.8717969,0.509397551 21.1861997,2.82380034 C23.5006024,5.13820313 23.5331215,8.88043847 21.2471068,11.2471068 L18.247235,14.2469786 C17.0164739,15.4781859 15.3116419,16.1141381 13.5752148,15.9897786 C11.8387877,15.8654191 10.2419815,14.9930101 9.19923496,13.5989786 Z M14.800765,10.4010214 C15.1315718,10.8432717 15.0412289,11.4699583 14.5989786,11.800765 C14.1567283,12.1315718 13.5300417,12.0412289 13.199235,11.5989786 C12.5040706,10.6696242 11.4395331,10.0880182 10.2819151,10.0051119 C9.12429701,9.92220558 7.98774232,10.3461737 7.16710678,11.1671068 L4.17928821,14.1547118 C2.66339937,15.7242273 2.68507871,18.2190509 4.2280139,19.7619861 C5.7709491,21.3049213 8.26577266,21.3266006 9.82289322,19.8228932 L11.5328932,18.1128932 C11.9234175,17.7223689 12.5565825,17.7223689 12.9471068,18.1128932 C13.3376311,18.5034175 13.3376311,19.1365825 12.9471068,19.5271068 L11.2247118,21.2492882 C8.87043847,23.5231215 5.12820313,23.4906024 2.81380034,21.1761997 C0.499397551,18.8617969 0.466878537,15.1195615 2.75289322,12.7528932 L5.75276504,9.75302142 C6.98352608,8.52181407 8.68835813,7.88586191 10.4247852,8.01022141 C12.1612123,8.13458091 13.7580185,9.00698991 14.800765,10.4010214 Z" id="path-1"></path>
    </defs>
    <g id="Symbols" stroke="none" stroke-width="1" fill="none" fill-rule="evenodd">
        <g id="Icons-/-24px-/-link">
            <rect id="Base" x="0" y="0" width="24" height="24"></rect>
            <mask id="mask-2" fill="white">
                <use xlink:href="#path-1"></use>
            </mask>
            <use id="Combined-Shape" fill="#000000" fill-rule="nonzero" xlink:href="#path-1"></use>
            <g id="UI/Color/Flat/Dark-1" mask="url(#mask-2)" fill="#333333">
                <rect id="Base" x="0" y="0" width="24" height="24"></rect>
            </g>
        </g>
    </g>
</svg>

<?xml version="1.0" encoding="utf-8"?>
<!-- Generator: Adobe Illustrator 16.0.0, SVG Export Plug-In . SVG Version: 6.00 Build 0)  -->
<!DOCTYPE svg PUBLIC "-//W3C//DTD SVG 1.1//EN" "http://www.w3.org/Graphics/SVG/1.1/DTD/svg11.dtd">
<svg version="1.1" id="Layer_1" xmlns="http://www.w3.org/2000/svg" xmlns:xlink="http://www.w3.org/1999/xlink" x="0px" y="0px"
	 width="24px" height="24px" viewBox="0 0 24 24" enable-background="new 0 0 24 24" xml:space="preserve">
<title>1CB48345-BA67-4533-BB33-9201866B6834</title>
<desc>Created with sketchtool.</desc>
<g id="Symbols">
	<g id="Icons-_x2F_-24px-_x2F_-link">
		<rect id="Base" fill="none" width="24" height="24"/>
		<g id="Combined-Shape">
			<path id="path-1_1_" d="M9.199,13.6c-0.331-0.443-0.24-1.069,0.202-1.4c0.442-0.331,1.069-0.24,1.4,0.202
				c0.695,0.929,1.76,1.511,2.918,1.594c1.156,0.083,2.293-0.341,3.114-1.162l2.987-2.988c1.516-1.569,1.494-4.064-0.049-5.607
				c-1.543-1.542-4.037-1.564-5.597-0.059l-1.72,1.71c-0.392,0.389-1.025,0.388-1.414-0.004c-0.39-0.392-0.388-1.025,0.004-1.415
				l1.73-1.72c2.354-2.273,6.096-2.241,8.41,0.073s2.348,6.057,0.062,8.423l-3,3c-1.23,1.231-2.936,1.867-4.672,1.743
				C11.839,15.865,10.242,14.993,9.199,13.6z M14.801,10.401c0.33,0.442,0.24,1.069-0.201,1.4c-0.443,0.331-1.069,0.24-1.4-0.202
				c-0.695-0.93-1.76-1.511-2.917-1.594c-1.157-0.083-2.294,0.341-3.115,1.162l-2.988,2.987c-1.516,1.57-1.494,4.064,0.049,5.607
				s4.038,1.564,5.595,0.061l1.71-1.709c0.391-0.391,1.024-0.391,1.415,0s0.391,1.023,0,1.414l-1.723,1.723
				c-2.354,2.273-6.096,2.24-8.411-0.074s-2.347-6.057-0.061-8.423l3-3c1.23-1.231,2.936-1.867,4.672-1.743
				S13.758,9.007,14.801,10.401z"/>
		</g>
		<defs>
			<filter id="Adobe_OpacityMaskFilter" filterUnits="userSpaceOnUse" x="0" y="0" width="24" height="24">
				<feColorMatrix  type="matrix" values="1 0 0 0 0  0 1 0 0 0  0 0 1 0 0  0 0 0 1 0"/>
			</filter>
		</defs>
		<mask maskUnits="userSpaceOnUse" x="0" y="0" width="24" height="24" id="mask-2">
			<g filter="url(#Adobe_OpacityMaskFilter)">
				<path id="path-1" fill="#FFFFFF" d="M9.199,13.6c-0.331-0.443-0.24-1.069,0.202-1.4c0.442-0.331,1.069-0.24,1.4,0.202
					c0.695,0.929,1.76,1.511,2.918,1.594c1.156,0.083,2.293-0.341,3.114-1.162l2.987-2.988c1.516-1.569,1.494-4.064-0.049-5.607
					c-1.543-1.542-4.037-1.564-5.597-0.059l-1.72,1.71c-0.392,0.389-1.025,0.388-1.414-0.004c-0.39-0.392-0.388-1.025,0.004-1.415
					l1.73-1.72c2.354-2.273,6.096-2.241,8.41,0.073s2.348,6.057,0.062,8.423l-3,3c-1.23,1.231-2.936,1.867-4.672,1.743
					C11.839,15.865,10.242,14.993,9.199,13.6z M14.801,10.401c0.33,0.442,0.24,1.069-0.201,1.4c-0.443,0.331-1.069,0.24-1.4-0.202
					c-0.695-0.93-1.76-1.511-2.917-1.594c-1.157-0.083-2.294,0.341-3.115,1.162l-2.988,2.987c-1.516,1.57-1.494,4.064,0.049,5.607
					s4.038,1.564,5.595,0.061l1.71-1.709c0.391-0.391,1.024-0.391,1.415,0s0.391,1.023,0,1.414l-1.723,1.723
					c-2.354,2.273-6.096,2.24-8.411-0.074s-2.347-6.057-0.061-8.423l3-3c1.23-1.231,2.936-1.867,4.672-1.743
					S13.758,9.007,14.801,10.401z"/>
			</g>
		</mask>
		<g id="UI_x2F_Color_x2F_Flat_x2F_Dark-1" mask="url(#mask-2)">
			<rect id="Base_1_" fill="#1046F1" width="24" height="24"/>
		</g>
	</g>
</g>
</svg>
